svg/medical_cotton_swab.svg

<svg xmlns="http://www.w3.org/2000/svg" viewBox="0 0 24 24"><path d="M3 3h12v2H3zM2 21h14V6H2zm3-9h2.5V9.5h3V12H13v3h-2.5v2.5h-3V15H5zm15-6c-1.7 0-3 1.8-3 4 0 1.8.8 3.2 2 3.8V21h2v-7.2c1.2-.5 2-2 2-3.8 0-2.2-1.3-4-3-4"/></svg>

<svg xmlns="http://www.w3.org/2000/svg" id="mdi-medical-cotton-swab" viewBox="0 0 24 24"><path d="M3 3H15V5H3V3M2 21H16V6H2V21M5 12H7.5V9.5H10.5V12H13V15H10.5V17.5H7.5V15H5V12M20 6C18.3 6 17 7.8 17 10C17 11.8 17.8 13.2 19 13.8V21H21V13.8C22.2 13.3 23 11.8 23 10C23 7.8 21.7 6 20 6Z" /></svg>
